X:373
T:Redwood Hill
C:Russ Carson - Last Chance
N:solo Dominick Leslie - Transcribed by Philippe Colleu
R:bluegrass
L:1/8
Q:1/4=240
M:4/4
K:C
"120 bpm"z7/1c | "Bb"ce _bg fb gf | ^cd gd fd =c_B | "F"_Bc df c2 [fc][fc] | [f2c2] [fc][fc] [fc][fd] [fd]c | 
"Gm"^c/=c/_B cB Ac B^F | A^F GA _Bc df/z/ | "D"^fd gd =f/z/^f d^c | d2 ^f3/2z/ g^d ^gd | 
"Eb"g^d2g {d}g_b c'g | _bc' ^c'd' bf a=c' | "Bb"ba _bf e^d =d_B | cA _BA Bc df | 
"C"e2 ed cd ^dg | "F7"^d=d c_B AB cA | "Bb"_B2 {A}BG FD GD | FD C_B, B,C DF | 
"Gm"D8 | 


